!!!OTL: MUSS I DENN MUSS I DENN
!!!ARE: Europa, Mitteleuropa, Deutschland, Schwaben, Remstal
!!!SCT: E0785
!!!YEM: Copyright 1995, estate of Helmut Schaffrath.
**kern
*ICvox
*Ivox
*M2/4
*k[b-]
*F:
{16f
16g
=1
8a
16a
16cc
8b-
16b-
16dd
=2
8cc
16cc
16b-
4a
=3
8cc
16cc
16b-
8a}
{16a
16cc
=4
8b-
8b-
8g
8cc
=5
4a
8r}
{16f
16g
=6
8a
16a
16cc
8b-
16b-
16dd
=7
8cc
16cc
16b-
4a
=8
8cc
16cc
16b-
8a}
{16a
16cc
=9
8b-
8b-
8g
8cc
=10
4a
8r}
{16f
16a
=11
8.g
16a
8b-
8g
=12
8.a
16b-
8cc}
{16cc
16cc
=13
8dd
8dd
8ff
16ee
16dd
=14
4cc
8r}
{16f
16a
=15
8cc
16cc
16dd
8cc
16cc
16ff
=16
8cc
16cc
16b-
4a
=17
8cc
16cc
16b-
8a}
{16a
16cc
=18
8b-
8b-
8g
8cc
=19
4a
8r}
==
!!!AGN: Abschieds - Lied, Liebe
!!!ONB: ESAC (Essen Associative Code) Database: ERK2
!!!AMT: simple duple
!!!AIN: vox
!!!EED: Helmut Schaffrath
!!!EEV: 1.0
*-
